X:629
T:Reel 629
M:4/4
K:Gmaj
L:1/8
 (3def |g2Bc d2Bd|eAAc A>GAd|GcBG GBdc'|bc'af gfef|g2Be dcBd| (3ABA FA ADFA|GBBc dBdb|c'afg g2| (3def |gfgb d'be'g|c'afb afdf|gabc' d'bag|efaf a2ba| (3gab  (3abc' bgag|fgab c'e'd'c'|bd'c'2 abag|fgef gbaf|
